X:572
T:Miss Moneypenny of Pitmilly
R:Reel
B:The Athole Collection
M:C|
L:1/8
K:G Minor
D|G/G/G GA BGAG|FCDF fcAF|BGBd cedg|fdcA BGG:|
g|bgdg dgbg|afcf AFcA|bgdg dgbg|fdcA BGGg|bgdg dgbg|
afcf AFcA|BGBd cedg|fdcA BGG||

